X: 2
T: Man Who'll Never Be Able, The
M: 9/8
L: 1/8
R: slip jig
K: Dmix
D |:\ 
G2 c BGB c2 A | Bdd cAG F2 D | 
G2 c BGB c2 A | Bdd cAF G2 d :|
|: AAA AFD FED | ABA AGF G2 [BD] | 
ABA AFD FED | B2 d cAF G2 D :|
